X:180
T: SCHATZ WENN DU REISEN WILLST
N: E0766E
O: Europa, Mitteleuropa, Deutschland, Brandenburg, Trebbin
R: Abschieds - Lied, Liebe
M: 4/4
L: 1/16
K: Eb
B,2E2G2 | B3BB2B2A2c2B2A2 | G4z2
E2E2E2 | A2c2e2e2d2c2 | B2E2G2
B2c2B2 | F2A2c2B2A2D2 | E4z2
E2E2E2 | A2c2e2e2d2c2 | B2E2G2
B2c2B2 | F2A2c2B2A2D2 | E4z2

@@@ Tune index: 4493
